icon/cg/nametag.svg

<svg width="24" height="24" fill="none" xmlns="http://www.w3.org/2000/svg"><path d="M4 14v6h6v-2H6v-4H4Z" fill="currentColor"/><path fill-rule="evenodd" clip-rule="evenodd" d="M9 9v6h6V9H9Zm4 2h-2v2h2v-2Z" fill="currentColor"/><path d="M4 10V4h6v2H6v4H4ZM20 10V4h-6v2h4v4h2ZM20 14v6h-6v-2h4v-4h2Z" fill="currentColor"/></svg>

<svg viewBox="0 0 24 24" fill="none" xmlns="http://www.w3.org/2000/svg" height="1em" width="1em">
  <path d="M4 14V20H10V18H6V14H4Z" fill="currentColor"/>
  <path fill-rule="evenodd" clip-rule="evenodd" d="M9 9V15H15V9H9ZM13 11H11V13H13V11Z" fill="currentColor"/>
  <path d="M4 10V4H10V6H6V10H4Z" fill="currentColor"/>
  <path d="M20 10V4H14V6H18V10H20Z" fill="currentColor"/>
  <path d="M20 14V20H14V18H18V14H20Z" fill="currentColor"/>
</svg>
